X:2889
T:J'coince la bulle (R. Robert)
O:england
D:Ronan Robert Reunion/ Pixie/Declic 50505-02
M:2/4
L:1/16
K:G
G2Bd c2eg |dfaf g2d2|e'd'bg dfaf |\
dcBA B2G2|G2Bd c2eg |
dfaf g2d2|e'd'bg dfaf |dcBA G4:|\
DGBG cBBG |DGBG cBBG|
DEFA defe |dcBA B2G2|DGBG cBBG |\
DGBG cBBG|DEFA defe |dcBA G4:|


